!!!!SEGMENT: 057-2-BH.krn
!!!COM: Chopin, Fryderyk
!!!OTL: Berceuse
!!!OPS: Op. 57
!!!PTL: Berceuse pour le Piano
!!!PPR: Breitkopf & Härtel
!!!PPP: Leipzig
!!!NIFC-rismID: 
!!!NIFC-shelfmark: 
!!!OMD: Andante.
!!!system-decoration: {(s1,s2)}
**kern	**fing	**kern	**fing	**dynam
*part1	*part1	*part1	*part1	*part1
*staff2	*	*staff1	*	*
*clefF4	*	*clefG2	*	*
*k[b-e-a-d-g-]	*	*k[b-e-a-d-g-]	*	*
*D-:	*	*D-:	*	*
*M6/8	*	*M6/8	*	*
=1	=1	=1	=1	=1
*ped	*	*	*	*
(>8DD-/L	.	2.r	.	p
8A-\	.	.	.	.
*Xped	*	*	*	*
8f\J 8d-\	.	.	.	.
*ped	*	*	*	*
8g-\ 8c\	.	.	.	.
4A-\)	.	.	.	.
*Xped	*	*	*	*
.	.	.	.	.
=2	=2	=2	=2	=2
*ped	*	*	*	*
(>8DD-/L	.	2.r	.	.
8A-\	.	.	.	.
*Xped	*	*	*	*
8f\J 8d\-	.	.	.	.
*ped	*	*	*	*
8g-\ 8c\	.	.	.	.
4A-\)	.	.	.	.
*Xped	*	*	*	*
.	.	.	.	.
=3	=3	=3	=3	=3
*ped	*	*	*	*
!	!	!LO:TX:i:b:t=dolce	!	!
(>8DD-L/	.	(>4.ff\	.	.
8A-\	.	.	.	.
*Xped	*	*	*	*
8f\J 8d-\	.	.	.	.
*ped	*	*	*	*
8g-\ 8c\	.	8ee-\L	.	.
4A-\)	.	8aa-\	.	.
*Xped	*	*	*	*
.	.	8ff\J	.	.
=4	=4	=4	=4	=4
*ped	*	*	*	*
(>8DD-/L	.	8ee-\L	.	.
8A-\	.	8ff\	.	.
*Xped	*	*	*	*
8f\J 8d-\	.	8dd-\J	.	.
*ped	*	*	*	*
8g-\ 8e-\	.	8b-\L	.	.
4A-\)	.	8cc\	.	.
*Xped	*	*	*	*
.	.	8ee-\J	.	.
=5	=5	=5	=5	=5
*ped	*	*	*	*
(>8DD-/L	.	8a-/	.	.
8A-\	.	4dd-\	.	.
*Xped	*	*	*	*
8f\J 8d-\	.	.	.	.
*ped	*	*	*	*
8g-\ 8c\	.	8ee-\L	.	.
4A-\)	.	8gg-\	.	.
*Xped	*	*	*	*
.	.	8bb-\J	.	.
=6	=6	=6	=6	=6
*	*	*^	*	*
*ped	*	*	*	*	*
(>/8DD-L	.	8aa-/L	4.ryy	.	.
8A-\	.	8gg-/	.	.	.
*Xped	*	*	*	*	*
8f\J 8d-\	.	8ff/J	.	.	.
*ped	*	*	*	*	*
8g-\ 8c\	.	8ee-/L>	4ryy	.	.
4A-\)	.	8dd-/	.	.	.
*Xped	*	*	*	*	*
.	.	8ee-/J	8cc\	.	.
=7	=7	=7	=7	=7	=7
*ped	*	*	*	*	*
(>/8DD-L	.	4.ff/	8dd-\L	.	.
8A-\	.	.	8cc\	.	.
*Xped	*	*	*	*	*
8f\J 8d-\	.	.	8b-\J	.	.
*ped	*	*	*	*	*
8g-\ 8e-\	.	8ee-/L	8cc\L	.	.
4A-\)	.	8aa-/	8b-\	.	.
*Xped	*	*	*	*	*
.	.	8ff/J	8a-\J	.	.
!!LO:LB:g=original
=8	=8	=8	=8	=8	=8
*ped	*	*	*	*	*
(>/8DD-L	.	8ee-/L	8b-\L	.	.
8A-\	.	8ff/	8a-\	.	.
*Xped	*	*	*	*	*
8d-\J	.	8dd-/J	8f\J	.	.
*ped	*	*	*	*	*
8e-\	.	8b-/L	8g-\L	.	.
4A-\)	.	8cc/	8f\	.	.
*Xped	*	*	*	*	*
.	.	8ee-/J	8e-\J	.	.
=9	=9	=9	=9	=9	=9
*ped	*	*	*	*	*
(>/8DD-L	.	8a-/	8g-\L	.	.
8A-\	.	4dd-/	8f\	.	.
*Xped	*	*	*	*	*
8f\J 8d-\	.	.	8b-\J	.	.
*ped	*	*	*	*	*
8g-\ 8e-\	.	8ee-/L	8cc\L	.	.
4A-\)	.	8gg-/	8b-\	.	.
*Xped	*	*	*	*	*
.	.	8bb-/J	8a-\J	.	.
=10	=10	=10	=10	=10	=10
*ped	*	*	*	*	*
(>/8DD-L	.	8aa-/L	8ff\L	.	.
8A-\	.	8ddd-/	8cc\	.	.
*Xped	*	*	*	*	*
8f\J 8d-\	.	8bb-/J	8dd-\J	.	.
*ped	*	*	*	*	*
8g-\ 8e-\	.	8gg-/L	8ee-\L	.	.
4A-\)	.	8ccc/	8b-\	.	.
*Xped	*	*	*	*	*
.	.	8aa-/J	8cc\J	.	.
=11	=11	=11	=11	=11	=11
*ped	*	*	*	*	*
(>/8DD-L	.	8ff/L	8dd-\L	.	.
8A-\	.	8bb-/	8a-\	.	.
*Xped	*	*	*	*	*
8f\J 8d-\	.	8gg-/J	8b-\J	.	.
*ped	*	*	*	*	*
8g-\ 8e-\	.	8ee-/L	8cc\L	.	.
4A-\)	.	8aa-/	8g-\	.	.
*Xped	*	*	*	*	*
.	.	8ff/J	8a-\J	.	.
=12	=12	=12	=12	=12	=12
*ped	*	*	*	*	*
(>/8DD-L	.	8ee-/L	8b-\L	.	.
8A-\	.	8ff/	8f\	.	.
*Xped	*	*	*	*	*
8f\J 8d-\	.	8dd-/J	[8a-\J	.	.
*ped	*	*	*	*	*
8e-\	.	8b-/L	8a-\L]	.	.
4A-\)	.	8cc/	8gn\	.	.
*Xped	*	*	*	*	*
.	.	8ee-/J	[8g-X\J	.	.
=13	=13	=13	=13	=13	=13
*ped	*	*	*	*	*
(>/8DD-L	.	8a-/	16g-\KL]	.	.
.	.	.	8f\	.	.
8A-\	.	4dd-/	.	.	.
.	.	.	16e-\L	.	.
*Xped	*	*	*	*	*
8f\J	.	.	16d-\	.	.
.	.	.	16b-\JJ	.	.
*ped	*	*	*	*	*
8g-\ 8e-\	.	8ee-/L	16dd-\KL	.	.
.	.	.	8cc\	.	.
4A-\)	.	8gg-/	.	.	.
.	.	.	16b-\L	.	.
.	.	8bb-/J	16a-\	.	.
*Xped	*	*	*	*	*
.	.	.	16gg-\JJ	.	.
!!LO:LB:g=original
=14	=14	=14	=14	=14	=14
*ped	*	*	*	*	*
(>/8DD-L	.	8aa-/L	16gg-\KL	.	.
.	.	.	8ff\	.	.
8A-\	.	8ddd-/	.	.	.
.	.	.	16ee-\L	.	.
*Xped	*	*	*	*	*
8f\J 8d-\	.	8bb-/J	16ff\	.	.
.	.	.	16dd-\JJ	.	.
*ped	*	*	*	*	*
8g-\ 8e-\	.	8gg-/L	16gg-\LL	.	.
.	.	.	16ddn\	.	.
4A-\)	.	8ccc/	16ee-\	.	.
.	.	.	16a-\	.	.
*Xped	*	*	*	*	*
.	.	8aa-/J)	16een\	.	.
.	.	.	16a-\JJ	.	.
*	*	*v	*v	*	*
=15	=15	=15	=15	=15
.	.	(<8qaa-/ 8qff/	.	.
*ped	*	*	*	*
(>/8DD-L	.	4.a-\)	.	.
8A-\	.	.	.	.
*Xped	*	*	*	*
8f\J 8d-\	.	.	.	.
*ped	*	*	*	*
.	.	(<8qaa-/ 8qee-/	.	.
8g-\ 8c\	.	8a-\L)	.	.
.	.	(<8qaa-/	.	.
4A-\)	.	8a-\)	.	.
.	.	(<8qaa-/ 8qff/	.	.
*Xped	*	*	*	*
.	.	8a-\J)	.	.
=16	=16	=16	=16	=16
.	.	(<8qaa-/ 8qee-/	.	.
*ped	*	*	*	*
(>/8DD-L	.	8a-\L)	.	.
.	.	(<8qaa-/ 8qff/	.	.
8A-\	.	8a-\)	.	.
.	.	(<8qaa-/ 8qdd-/	.	.
*Xped	*	*	*	*
8f\J 8d-\	.	8a-\J)	.	.
.	.	(<8qaa-/ 8qb-/	.	.
*ped	*	*	*	*
8g-\ 8e-\	.	8a-\L)	.	.
.	.	(<8qaa-/ 8qcc/	.	.
4A-\)	.	8a-\)	.	.
.	.	(<8qaa-/ 8qee-/	.	.
*Xped	*	*	*	*
.	.	8a-\J)	.	.
=17	=17	=17	=17	=17
.	.	(<8qaa-/	.	.
*ped	*	*	*	*
(>/8DD-L	.	8a-\L)	.	.
.	.	(<8qaa-/ 8qcc/	.	.
8A-\	.	8a-\)	.	.
.	.	(<8qaa-/ 8qdd-/	.	.
*Xped	*	*	*	*
8f\J 8d-\	.	8a-\J)	.	.
*ped	*	*	*	*
.	.	(<8qaa-/ 8qddn/	.	.
8g-\ 8c\	.	8a-\L)	.	.
.	.	(<8qaa-/ 8qee-/	.	.
4A-\)	.	8a-\)	.	.
.	.	(<8qaa-/ 8qeen/	.	.
*Xped	*	*	*	*
.	.	8a-\J)	.	.
=18	=18	=18	=18	=18
.	.	(<8qaa-/ 8qff/	.	.
*ped	*	*	*	*
(>/8DD-L	.	8a-\L)	.	.
.	.	(<8qbb-/ 8qff/	.	.
8A-\	.	8a-\)	.	.
.	.	(<8qggn/ 8qff/	.	.
*Xped	*	*	*	*
8f\J 8d-\	.	8a-\J)	.	.
*ped	*	*	*	*
.	.	(<8qaa-/ 8qgg-/	.	.
8g-\ 8c\	.	8a-\L)	.	.
.	.	(<8qbb-/ 8qgg-/	.	.
4A-\)	.	8a-\)	.	.
!	!	!LO:TX:a:t=P:problem:przednutki połączone caudami, tworząc kształt trójkąta	!	!
.	.	(<8qgg-y/	.	.
.	.	8qggn/	.	.
*Xped	*	*	*	*
.	.	8a-\J)	.	.
!!LO:PB:g=original
=19	=19	=19	=19	=19
*ped	*	*	*	*
!	!	!LO:TX:a:t=P:problem:luk pionowy miedzy 4ff a 4aa-	!	!
(>/8DD-L	.	(4aa-\T 4ff\	.	.
8A-\	.	.	.	.
8f\J 8d-\	.	32ggn\LLL	.	>
.	.	32aa-\	.	.
.	.	32ddd-\	.	.
*Xped	*	*	*	*
.	.	32bb-\JJJ	.	.
*ped	*	*	*	*
8g-\ 8e-\	.	32ff\LLL	.	.
.	.	32gg-X\	.	.
.	.	32ccc\	.	.
.	.	32aa-\JJJ	.	.
4A-\)	.	32een\LLL	.	.
.	.	32ff\	.	.
.	.	32bb-\	.	.
.	.	32gg-\JJJ	.	.
.	.	32ddn\LLL	.	.
.	.	32ee-X\	.	.
.	.	32aa-\	.	.
*Xped	*	*	*	*
.	.	32ff\JJJ	.	]
=20	=20	=20	=20	=20
*ped	*	*	*	*
(>/8DD-L	.	32cc\LLL	.	.
.	.	32dd-X\	.	.
.	.	32gg-\	.	.
.	.	32ee-\JJJ	.	.
8A-\	.	32bn\LLL	.	.
.	.	32cc\	.	.
.	.	32ff\	.	.
.	.	32dd-\JJJ	.	.
8f\J 8d-\	.	32an/LLL	.	.
.	.	32b-X\	.	.
.	.	32ee-\	.	.
*Xped	*	*	*	*
.	.	32cc\JJJ	.	.
*ped	*	*	*	*
8g-\ 8e-\	.	32gn\LLL	.	<
.	.	32a-X\	.	.
.	.	32cc\	.	.
.	.	32b-\JJJ	.	.
4A-\)	.	32g\LLL	.	.
.	.	32a-\	.	.
.	.	32b-\	.	.
.	.	32cc\JJJ	.	.
.	.	32dd-\LLL	.	.
.	.	32ee-\	.	.
.	.	32ff\	.	.
*Xped	*	*	*	*
.	.	32gg-X\JJJ	.	.
!!LO:LB:g=original
=21	=21	=21	=21	=21
*ped	*	*	*	*
(>/8DD-L	.	32ggn\LLL	.	.
.	.	32aa-\	.	.
.	.	32aan\	.	.
.	.	32bb-X\JJJ	.	.
8A-\	.	32bbn\LLL	.	.
.	.	32ccc\	.	.
.	.	32bbny\	.	.
.	.	32ddd-\JJJ	.	.
8f\J 8d-\	.	32ccc\LLL	.	.
.	.	32dddn\	.	.
.	.	32ddd-X\	.	.
*Xped	*	*	*	*
.	.	32eee-\JJJ	.	.
*ped	*	*	*	*
8g-\ 8c\	.	32dddn\LLL	.	.
.	.	32fff-X\	.	.
.	.	32eee-\	.	.
.	.	32fffn\JJJ	.	.
*	*	*8va	*	*
4A-\)	.	32eeen\LLL	.	.
.	.	32ggg-X\	.	.
.	.	32fff\	.	.
.	.	32gggn\JJJ	.	.
.	.	32ggg-X\LLL	.	.
.	.	32aaa-X\	.	.
.	.	32gggn\	.	.
*Xped	*	*	*	*
.	.	32bbb-X\JJJ	.	[
=22	=22	=22	=22	=22
*ped	*	*	*	*
(>/8DD-L	.	32aaa-\LLL	.	>
.	.	32ffff\	.	.
.	.	32eeee-\	.	.
.	.	32dddd-\JJJ	.	.
8A-\	.	32fff\LLL	.	.
.	.	32dddd-\	.	.
.	.	32cccc\	.	.
.	.	32bbb-\JJJ	.	.
8f\J 8d-\	.	32ddd-\LLL	.	.
.	.	32bbb-\	.	.
.	.	32aaa-\	.	.
*Xped	*	*	*	*
.	.	32ggg-\JJJ	.	.
*ped	*	*	*	*
*	*	*X8va	*	*
8g-\ 8e-\	.	32bb-\LLL	.	.
.	.	32ggg-\	.	.
.	.	32fff\	.	.
.	.	32eee-\JJJ	.	.
4A-\)	.	32gg-\LLL	.	.
.	.	32eee-\	.	.
.	.	32ddd-\	.	.
.	.	32ccc\JJJ	.	.
.	.	32ee-\LLL	.	.
.	.	32ccc\	.	.
.	.	32bb-\	.	.
*Xped	*	*	*	*
.	.	32aa-\JJJ)	.	]
!!LO:LB:g=original
=23	=23	=23	=23	=23
*ped	*	*	*	*
(>/8DD-L	.	8aa-\L 8ff\	.	.
.	.	.	.	>
8A-\	.	(8.fff\ 8.ddd-\	.	.
*Xped	*	*	*	*
8f\J 8d-\	.	.	.	.
.	.	16bb-\Jk 16gg-\	.	.
*ped	*	*	*	*
*	*	*Xtuplet	*	*
8g-\ 8e-\	.	24eee-\LL 24ccc\	.	.
.	.	24aa-\ 24ff\	.	.
.	.	24ddd-\JJ 24bb-\	.	.
4A-\)	.	24gg-\LL 24ee-\	.	.
.	.	24ccc\ 24aa-\	.	.
.	.	24ff\JJ 24dd-\	.	]]
.	.	48bb-\LLL 48gg-\	.	.
.	.	48ee-\ 48cc\	.	.
.	.	48aa-\ 48ff\	.	.
.	.	48dd-\ 48b-\	.	.
.	.	48gg-\ 48ee-\	.	.
*Xped	*	*	*	*
.	.	48cc/JJJ 48a-/	.	.
=24	=24	=24	=24	=24
*ped	*	*	*	*
(>/8DD-L	.	8.ff\L 8.dd-\	.	.
8A-\	.	.	.	.
.	.	16cc\L 16a-\	.	.
8f\J 8d-\	.	16ff\ 16dd-\	.	.
*Xped	*	*	*	*
.	.	16b-\JJ 16a-\	.	.
*	*	*tuplet	*	*
!	!	!LO:TUP:a	!	!
*ped	*	*	*	*
8e-\	.	64%3ff\LL 64%3dd-\	.	.
.	.	64%3b-\ 64%3g-\	.	.
.	.	64%3ff\ 64%3dd-\	.	.
4A-\)	.	.	.	.
.	.	64%3b-\ 64%3g-\	.	.
.	.	64%3ff\ 64%3dd-\	.	.
.	.	64%3b-\ 64%3g-\	.	.
.	.	64%3ee-\ 64%3cc\	.	.
*Xped	*	*	*	*
.	.	64%3b-\JJ 64%3g-\)	.	.
=25	=25	=25	=25	=25
*	*	*	*^	*
*ped	*	*	*	*	*
!	!	!LO:TUP:a	!	!	!
(>/8DD-L	.	(>24a-\LL 24f\	.	.	.
.	.	24an\ 24f#X\	.	.	.
.	.	24b-\JJ 24gn\	.	.	.
!	!	!LO:TUP:a	!	!	!
*Xped	*	*	*	*	*
8A-\	.	24bn\LL 24g#X\	.	.	<
.	.	24cc\ 24an\	.	.	.
.	.	24dd-\JJ 24b-X\	.	.	.
*	*	*Xtuplet	*	*	*
8f\J 8d-\	.	24ddn\LL 24bn\	.	1	.
.	.	24ee-\ 24cc\	.	1	.
.	.	24een\JJ 24cc#X\	.	.	.
8g-\ 8c\	.	24ffn\LL 24ddn\	.	.	.
.	.	24ff#X\ 24dd#X\	.	.	.
.	.	24ggn\JJ 24een\	.	1	.
4A-\)	.	24aa-X\LL 24ffn\	.	1	.
.	.	24aan\ 24ff#X\	.	.	.
.	.	24bb-X\JJ 24gg\	.	.	.
.	.	24bbn\LL 24gg#X\	.	.	.
.	.	24cccn\ 24aan\	.	.	.
.	.	24ddd-X\JJ 24bb-X\	.	.	[
*	*	*	*v	*v	*
!!LO:LB:g=original
=26	=26	=26	=26	=26
*	*	*8va	*	*
*ped	*	*	*	*
(>/8DD-L	.	24dddn\LL 24bbn\	.	<
.	.	24eee-\ 24ccc\	.	.
.	.	24eeen\JJ 24ccc#X\	.	.
8A-\	.	24fff\LL 24ddd\	.	.
.	.	24fff#X\ 24ddd#X\	.	.
.	.	24gggn\JJ 24eeen\	.	.
8f\J 8d-\	.	24aaa-\LL 24fffn\	.	.
*Xped	*	*	*	*
.	.	24bbb-X\ 24ggg-X\	.	.
.	.	24aaa-\JJ 24fff\	.	.
8g-\ 8c\	.	24bbb-\LL 24ggg-\	.	.
.	.	24aaa-\ 24eee-\	.	.
.	.	24bbb-\JJ 24ggg-\	.	.
4A-\)	.	24aaa-\LL 24ddd-\	.	.
.	.	24bbb-\ 24ggg-\	.	.
.	.	24aaa-\JJ 24cccn\	.	.
.	.	24bbb-\LL 24ggg-\	.	.
.	.	24aaa-\ 24bb-\	.	.
.	.	24bbb-\JJ 24ggg-\	.	[
=27	=27	=27	=27	=27
*	*	*tuplet	*	*
*ped	*	*	*	*
!	!	!LO:TX:a:t=P:brak klamry:problem	!	!
!	!	!LO:TUP:a	!	!
(>/8DD-L	.	24aaa-\LL 24fff\ 24aa-\	.	.
.	.	24dddd-\JJ	.	.
.	.	24r)	.	.
8A-\	.	8r	.	.
!	!	!LO:TX:a:t=P:brak klamry:problem	!	!
!	!	!LO:TUP:a	!	!
8f\J 8d-\	.	(>24dddd-\LL 24fff\	.	.
.	.	24aa-\JJ)	.	.
*Xped	*	*	*	*
.	.	.	.	.
.	.	24r	.	.
*	*	*Xtuplet	*	*
*ped	*	*	*	*
8g-\ 8e-\	.	(>24ggg-\LL 24aa-\	.	.
.	.	24cccc\JJ)	.	.
.	.	24r	.	.
4A-\)	.	(>24ggg-\LL 24ccc\	.	.
.	.	24ee-\JJ)	.	.
.	.	24r	.	.
.	.	(>24eee-\LL 24gg-\	.	.
.	.	24bbb-\JJ)	.	.
*Xped	*	*	*	*
.	.	24r	.	.
!!LO:LB:g=original
=28	=28	=28	=28	=28
*ped	*	*	*	*
(>/8DD-L	.	(>24bbb-\LL 24ddd-\	.	.
.	.	24een\JJ)	.	.
*Xped	*	*	*	*
.	.	.	.	.
.	.	24r	.	.
*ped	*	*	*	*
8A-\	.	(>24ddd-\LL 24ff\	.	.
.	.	24aaa-\JJ)	.	.
*	*	*X8va	*	*
.	.	24r	.	.
8f\J 8d-\	.	(>24fff\LL 24aa-\	.	.
*Xped	*	*	*	*
.	.	24dd-\JJ)	.	.
.	.	24r	.	.
*ped	*	*	*	*
8g-\ 8e-\	.	(>24aa-\LL 24dd-\	.	.
.	.	24fff\JJ)	.	.
.	.	24r	.	.
4A-\)	.	(>24eee-X\LL 24aa-\	.	.
.	.	24cc\JJ)	.	.
.	.	24r	.	.
.	.	(>24gg-\LL 24a-\	.	.
.	.	24ccc\JJ)	.	.
*Xped	*	*	*	*
.	.	24r	.	.
=29	=29	=29	=29	=29
*ped	*	*	*	*
(>/8DD-L	.	(>24aa-\LL 24ee-\	.	.
.	.	24f\JJ)	.	.
.	.	24r	.	.
8A-\	.	(>24dd-\LL 24f\	.	.
.	.	24aa-\JJ)	.	.
.	.	24r	.	.
8f\J 8d-\	.	(>24ddd-\LL 24ff\	.	.
.	.	24a-\JJ)	.	.
*Xped	*	*	*	*
.	.	24r	.	.
*ped	*	*	*	*
8g-\ 8c\	.	(>24gg-\LL 24a-\	.	.
.	.	24eee-\JJ)	.	.
.	.	24r	.	.
*	*	*8va	*	*
4A-\)	.	(>24ggg-\LL 24ccc\	.	.
.	.	24ee-\JJ)	.	.
.	.	24r	.	.
.	.	(>24eee-\LL 24gg-\	.	.
.	.	24bbb-\JJ)	.	.
*Xped	*	*	*	*
.	.	24r	.	.
=30	=30	=30	=30	=30
*ped	*	*	*	*
(8DD-/L	.	(>24bbb-\LL 24ddd-\	.	.
.	.	24een\JJ)	.	.
.	.	24r	.	.
8A-\	.	(>24ddd-\LL 24ff\	.	.
.	.	24aaa-\JJ)	.	.
.	.	24r	.	.
8f\J 8d-\	.	(>24dddd-\LL 24fff\	.	.
.	.	24aa-\JJ)	.	.
*Xped	*	*	*	*
.	.	.	.	.
.	.	24r	.	.
*ped	*	*	*	*
8g-\ 8c\	.	(>24ggg-\LL 24aa-\	.	.
.	.	24eeee-X\JJ)	.	.
.	.	24r	.	.
4A-\)	.	(>24ffff\LL 24aaa-\	.	.
.	.	24ccc\JJ)	.	.
.	.	24r	.	.
.	.	(>24eee-\LL 24gg-\	.	.
.	.	24cccc\JJ)	.	.
*Xped	*	*	*	*
.	.	24r	.	.
!!LO:PB:g=original
=31	=31	=31	=31	=31
.	.	8qddd-/ 8qff/	.	.
*ped	*	*	*	*
(>/8DD-L	.	(>[8dddd-\	.	.
8A-\	.	24dddd-\LL]	.	.
.	.	24cccc\ 24aaan\	.	.
.	.	24cccc\JJ 24aaa\	.	.
8f\J 8d-\	.	24cccc-X\LL 24aaa-X\	.	.
.	.	24bbb-\ 24gggn\	.	.
*Xped	*	*	*	*
.	.	24bbb-\JJ 24ggg\	.	.
*ped	*	*	*	*
8g-\ 8c\	.	24bbb--\LL 24ggg-X\	.	.
.	.	24aaa-\ 24fff\	.	.
.	.	24aaa-\JJ 24fff\	.	.
4A-\)	.	24aaa--\LL 24fff-\	.	.
.	.	24ggg-\ 24eee-\	.	.
.	.	24ggg-\JJ 24eee-\	.	.
.	.	24fffn\LL 24dddn\	.	.
.	.	24fff-X\ 24ddd-X\	.	.
*Xped	*	*	*	*
.	.	24fff-\JJ 24ddd-\	.	.
*	*	*X8va	*	*
=32	=32	=32	=32	=32
*ped	*	*	*	*
(>/8DD-L	.	24eee-\LL 24ccc\	.	.
.	.	24eee--\ 24ccc-X\	.	.
.	.	24eee--\JJ 24ccc-\	.	.
8A-\	.	24ddd-\LL 24bb-\	.	.
.	.	24cccn\ 24aan\	.	.
.	.	24ccc\JJ 24aa\	.	.
8f\J 8d-\	.	24ccc-X\LL 24aa-X\	.	.
.	.	24bb-\ 24ggn\	.	.
*Xped	*	*	*	*
.	.	24bb-\JJ 24gg\	.	.
*ped	*	*	*	*
8g-\ 8c\	.	24bb--\LL 24gg-X\	.	.
.	.	24aa-\ 24ff\	.	.
.	.	24aa-\JJ 24ff\	.	.
4A-\)	.	24aa--\LL 24ff-X\	.	.
.	.	24gg-\ 24ee-X\	.	.
.	.	24gg-\JJ 24ee-\	.	.
.	.	24ffny\LL 24dd-\	.	.
.	.	24ee-\ 24ccn\	.	.
*Xped	*	*	*	*
.	.	24een\JJ 24b-X\)	.	.
!!LO:LB:g=original
=33	=33	=33	=33	=33
*	*	*^	*	*
*ped	*	*	*	*	*
(>/8DD-L	.	8a-/	(>24a-\LL	.	.
.	.	.	24gg-\ 24ee-X\	.	.
.	.	.	24ff\JJ 24dd-\	.	.
8A-\	.	8a-/	24a-\LL	.	.
.	.	.	24ff\ 24dd-\	.	.
.	.	.	24ee-\JJ 24cc\	.	.
8f\J 8d-\	.	8a-/	24a-\LL	.	.
.	.	.	24ee-\ 24cc\	.	.
*Xped	*	*	*	*	*
.	.	.	.	.	.
.	.	.	24ff\JJ 24dd-\	.	.
*ped	*	*	*	*	*
8g-\ 8c\	.	8a-/	24a-\LL	.	.
.	.	.	24aa-\ 24ff\	.	.
.	.	.	24gg-\JJ 24ee-\	.	.
*Xped	*	*	*	*	*
4A-\)	.	8a-/	24a-\LL	.	.
.	.	.	24gg-\ 24ee-\	.	.
.	.	.	24ff\JJ 24ddn\	.	.
.	.	8a-/	24a-\LL	.	.
.	.	.	24ff\ 24dd\	.	.
.	.	.	24gg-\JJ 24ee-\	.	.
=34	=34	=34	=34	=34	=34
*ped	*	*	*	*	*
(>/8DD-L	.	8a-/	24a-\LL	.	<
.	.	.	24gg-\ 24ee-\	.	.
.	.	.	24ggn\JJ 24een\	.	.
8A-\	.	8a-/	24a-\LL	.	.
.	.	.	24gg\ 24ee\	.	.
*Xped	*	*	*	*	*
.	.	.	24aa-\JJ 24ff\	.	.
8f\J 8d-\	.	8a-/	24a-\LL	.	.
.	.	.	24aa-\ 24ff\	.	.
.	.	.	24bb--\JJ 24gg-X\	.	[
*ped	*	*	*	*	*
8g-\ 8c\	.	8a-/	24a-\LL	.	>
.	.	.	24bb--\ 24gg-\	.	.
.	.	.	24aa-\JJ 24ff\	.	.
4A-\)	.	8a-/	24a-\LL	.	.
.	.	.	24aa-\ 24ff\	.	.
*Xped	*	*	*	*	*
.	.	.	.	.	.
.	.	.	24ggn\JJ 24een\	.	.
.	.	8a-/	24a-\LL	.	.
.	.	.	24aa--\ 24ff-X\	.	]]
.	.	.	24gg-X\JJ 24ee-X\)	.	.
*	*	*v	*v	*	*
!!LO:LB:g=original
=35	=35	=35	=35	=35
*ped	*	*	*	*
(>/8DD-L	.	(16ff\LL 16dd-\ 16a-\	.	.
.	.	16aa-\ 16ff\ 16dd-\	.	.
8A-\	.	16ddd-\ 16aa-\ 16ff\	.	.
.	.	16eee-\ 16aa-\ 16gg-\	.	.
8f\J 8d-\	.	16fff\ 16ddd-\ 16aa-\	.	.
*Xped	*	*	*	*
.	.	16ggg-\JJ 16ddd-\ 16bb-\	.	.
*ped	*	*	*	*
8g-\ 8e-\	.	16fff\LL 16ccc\ 16aa-\	.	.
.	.	16eee-\ 16ccc\ 16gg-\	.	.
4A-\)	.	16ccc\ 16gg-\ 16ee-\	.	.
.	.	16bb-\ 16gg-\ 16dd-\	.	.
*	*	*tuplet	*	*
!	!	!LO:TX:a:t=P:problem:brak klamry	!	!
!	!	!LO:TUP:a	!	!
.	.	24aa-\ 24gg-\ 24cc\	.	.
.	.	24bb-\ 24gg-\ 24dd-\	.	.
*Xped	*	*	*	*
.	.	24bb-\JJ 24gg-\ 24ee-\	.	.
=36	=36	=36	=36	=36
*ped	*	*	*	*
(>/8DD-L	.	16aa-\LL 16ff\ 16ee-\	.	.
.	.	16aa-\ 16ff\ 16dd-\	.	.
*	*	*8va	*	*
!	!	!LO:TUP:a	!	!
!	!	!LO:TX:a:t=P:problem:brak klamry, 2 triole 3+3, a nie sekstola, komenda *tupbreak powoduje zle wyswietlanie partytury	!	!
8A-\	.	24ddd-\ 24bb-\ 24ff\	.	.
.	.	24ddd-\ 24aa-\ 24ff\	.	.
.	.	24ggg-\ 24ddd-\ 24aa-\	.	.
8f\J 8d-\	.	24fff\ 24ddd-\ 24aa-\	.	.
*Xped	*	*	*	*
.	.	.	.	.
.	.	24aaa-\ 24ddd-\ 24aa-\	.	.
.	.	24dddd-\JJ 24aaa-\ 24ddd-\	.	.
*ped	*	*	*	*
*	*	*Xtuplet	*	*
8g-\ 8e-\	.	24dddd-\LL 24aaa-\ 24eee-\	.	.
.	.	24cccc\ 24aaa-\ 24eee-\	.	.
.	.	24bbb-\JJ 24eee-\ 24ddd-\	.	.
4A-\)	.	24aaa-\LL 24eee-\ 24ccc\	.	.
.	.	24eee-\ 24bb-\ 24gg-\	.	.
.	.	24fff\JJ 24ccc\ 24aa-\	.	.
*	*	*X8va	*	*
*Xped	*	*	*	*
.	.	24ccc\LL 24gg-\ 24ee-\	.	.
.	.	24bb-\ 24gg-\ 24dd-\	.	.
.	.	24aa-\JJ 24gg-\ 24cc\)	.	.
=37	=37	=37	=37	=37
*ped	*	*	*	*
(>/8DD-L	.	(>32a-/LLL	.	.
.	.	32aa-\	.	.
.	.	32cc\	.	.
.	.	32b-\JJJ	.	.
8A-\	.	32b-\LLL	.	.
.	.	32aa-\	.	.
.	.	32dd-\	.	.
.	.	32cc\JJJ	.	.
8f\J 8d-\	.	32cc\LLL	.	.
*Xped	*	*	*	*
.	.	32aa-\	.	.
.	.	32ee-\	.	.
.	.	32dd-\JJJ	.	.
*ped	*	*	*	*
8g-\ 8e-\	.	32b-\LLL	.	.
.	.	32aa-\	.	.
.	.	32dd-\	.	.
.	.	32cc\JJJ	.	.
4A-\)	.	32cc\LLL	.	.
.	.	32aa-\	.	.
.	.	32ee-\	.	.
.	.	32dd-\JJJ	.	.
*Xped	*	*	*	*
.	.	32dd-\LLL	.	.
.	.	32aa-\	.	.
.	.	32ff\	.	.
.	.	32ee-\JJJ	.	.
!!LO:LB:g=original
=38	=38	=38	=38	=38
*ped	*	*	*	*
(>/8DD-L	.	32dd-\LLL	.	.
.	.	32bb-\	.	.
.	.	32ff\	.	.
.	.	32ff-X\JJJ	.	.
8A-\	.	32ee-\LLL	.	.
.	.	32ccc\	.	.
.	.	32gg-\	.	.
.	.	32ffn\JJJ	.	.
8f\J 8d-\	.	32ff-X\LLL	.	.
.	.	32ddd-\	.	.
*Xped	*	*	*	*
.	.	.	.	.
.	.	32aa--\	.	.
.	.	32gg-\JJJ	.	.
*ped	*	*	*	*
8g-\ 8c\	.	32ffn\LLL	.	.
.	.	32dddn\	.	.
.	.	32aa-X\	.	.
.	.	32ggn\JJJ	.	.
4A-\)	.	32gg-X\LLL	.	.
.	.	32eee-\	.	.
.	.	32bb--\	.	.
.	.	32aa-\JJJ	.	.
*Xped	*	*	*	*
.	.	32ggn\LLL	.	.
.	.	32fff-X\	.	.
.	.	32bb-X\	.	.
.	.	32aan\JJJ	.	.
=39	=39	=39	=39	=39
*	*	*^	*	*
*ped	*	*	*	*	*
(>/8DD-L	.	8ryy	8fffn\ 8aa-X\)	.	.
*	*	*Xtuplet	*Xtuplet	*	*
8A-\	.	48ryy	(>48bb-\LLL	.	.
.	.	24ggg-/LL	48ggg-\	.	.
.	.	.	48bb-\JJJ	.	.
.	.	48ryy	48aa-\LLL	.	.
.	.	24fff/	48fff\	.	.
.	.	.	48aa-\JJJ	.	.
8f\J 8d-\	.	48ryy	48bb-\LLL	.	.
.	.	24ggg-/	48ggg-\	.	.
.	.	.	48bb-\JJJ	.	.
*Xped	*	*	*	*	*
.	.	.	.	.	.
.	.	48ryy	48ff\LLL	.	.
.	.	24ddd-/JJ	48ddd-\	.	.
.	.	.	48ff\JJJ	.	.
*ped	*	*	*	*	*
8g-\ 8c\	.	48ryy	48aa-\LLL	.	.
.	.	24fff/LL	48fff\	.	.
.	.	.	48aa-\JJJ	.	.
.	.	48ryy	48gg-\LLL	.	.
.	.	24eee-/	48eee-\	.	.
.	.	.	48gg-\JJJ	.	.
4A-\)	.	48ryy	48aa-\LLL	.	.
.	.	24fff/	48fff\	.	.
.	.	.	48aa-\JJJ	.	.
.	.	48ryy	48ee-\LLL	.	.
.	.	24ccc/	48ccc\	.	.
.	.	.	48ee-\JJJ	.	.
.	.	48ryy	48gg-\LLL	.	.
.	.	24eee-/	48eee-\	.	.
.	.	.	48gg-\JJJ	.	.
.	.	48ryy	48ff\LLL	.	.
.	.	24ddd-/JJ	48ddd-\	.	.
*Xped	*	*	*	*	*
.	.	.	48ff\JJJ	.	.
!!LO:LB:g=original
=40	=40	=40	=40	=40	=40
*ped	*	*	*	*	*
(>/8DD-L	.	48ryy	48gg-\LLL	.	.
.	.	24eee-/LL	48eee-\	.	.
.	.	.	48gg-\JJJ	.	.
.	.	48ryy	48dd-\LLL	.	.
.	.	24bb-/	48bb-\	.	.
.	.	.	48dd-\JJJ	.	.
8A-\	.	48ryy	48ff\LLL	.	.
.	.	24ddd-/	48ddd-\	.	.
.	.	.	48ff\JJJ	.	.
.	.	48ryy	48ee-\LLL	.	.
.	.	24ccc/	48ccc\	.	.
.	.	.	48ee-\JJJ	.	.
8f\J 8d-\	.	48ryy	48ff\LLL	.	.
.	.	24ddd-/	48ddd-\	.	.
.	.	.	48ff\JJJ	.	.
.	.	48ryy	48cc\LLL	.	.
.	.	24aa-/JJ	48aa-\	.	.
*Xped	*	*	*	*	*
.	.	.	48cc\JJJ	.	.
*ped	*	*	*	*	*
8g-\ 8e-\	.	48ryy	48ee-\LLL	.	.
.	.	24ccc/LL	48ccc\	.	.
.	.	.	48ee-\JJJ	.	.
.	.	48ryy	48dd-\LLL	.	.
.	.	24bb-/	48bb-\	.	.
.	.	.	48dd-\JJJ	.	.
4A-\)	.	48ryy	48ee-\LLL	.	.
.	.	24ccc/	48ccc\	.	.
.	.	.	48ee-\JJJ	.	.
.	.	48ryy	48b-\LLL	.	.
.	.	24gg-/	48gg-\	.	.
.	.	.	48b-\JJJ	.	.
.	.	48ryy	48dd-\LLL	.	.
.	.	24bb-/	48bb-\	.	.
.	.	.	48dd-\JJJ	.	.
.	.	48ryy	48cc\LLL	.	.
.	.	24aa-/JJ	48aa-\	.	.
*Xped	*	*	*	*	*
.	.	.	48cc\JJJ	.	.
!!LO:PB:g=original
=41	=41	=41	=41	=41	=41
*ped	*	*	*	*	*
(>/8DD-L	.	48ryy	48a-\LLL	.	.
.	.	24ff/LL	48ff\	.	.
.	.	.	48a-\JJJ	.	.
.	.	48ryy	48an\LLL	.	.
.	.	24ff#X/	48ff#X\	.	.
.	.	.	48a\JJJ	.	.
8A-\	.	48ryy	48b-\LLL	.	.
.	.	24ggn/	48ggn\	.	.
.	.	.	48b-\JJJ	.	.
.	.	48ryy	48bn\LLL	.	.
.	.	24aa-X/	48aa-X\	.	.
.	.	.	48b\JJJ	.	.
8f\J 8d-\	.	48ryy	48cc\LLL	.	.
.	.	24aan/	48aan\	.	.
.	.	.	48cc\JJJ	.	.
*Xped	*	*	*	*	*
.	.	48ryy	48dd-\LLL	.	.
.	.	24bb-X/JJ	48bb-X\	.	.
.	.	.	48dd-\JJJ	.	.
*ped	*	*	*	*	*
8g-\ 8c\	.	48ryy	48ddn\LLL	.	.
.	.	24bbn/LL	48bbn\	.	.
.	.	.	48dd\JJJ	.	.
.	.	48ryy	48ee-\LLL	.	.
.	.	24ccc/	48ccc\	.	.
.	.	.	48ee-\JJJ	.	.
4A-\)	.	48ryy	48een\LLL	.	.
.	.	24ccc#X/	48ccc#X\	.	.
.	.	.	48ee\JJJ	.	.
.	.	48ryy	48ffn\LLL	.	.
.	.	24dddn/	48dddn\	.	.
.	.	.	48ff\JJJ	.	.
.	.	48ryy	48ff#X\LLL	.	.
.	.	24eee-X/	48eee-X\	.	.
.	.	.	48ff#\JJJ	.	.
.	.	48ryy	48ggn\LLL	.	.
.	.	24eeen/JJ	48eeen\	.	.
*Xped	*	*	*	*	*
.	.	.	48gg\JJJ	.	.
!!LO:LB:g=original
=42	=42	=42	=42	=42	=42
*	*	*8va	*	*	*
!	!	!LO:TX:t=P:problem:znacznik 8va od pierwszej nuty w takcie	!	!	!
*ped	*	*	*	*	*
(>/8DD-L	.	48ryy	48aa-\LLL	.	.
.	.	24fff/LL	48fff\	.	.
.	.	.	48aa-\JJJ	.	.
.	.	48ryy	48aan\LLL	.	.
.	.	24fff#X/	48fff#X\	.	.
.	.	.	48aa\JJJ	.	.
8A-\	.	48ryy	48bb-\LLL	.	.
.	.	24gggn/	48gggn\	.	.
.	.	.	48bb-\JJJ	.	.
.	.	48ryy	48bbn\LLL	.	.
.	.	24aaa-X/	48aaa-X\	.	.
.	.	.	48bb\JJJ	.	.
8f\J 8d-\	.	48ryy	48ccc\LLL	.	.
.	.	24aaan/	48aaan\	.	.
.	.	.	48ccc\JJJ	.	.
*Xped	*	*	*	*	*
.	.	48ryy	48ddd-\LLL	.	.
.	.	24bbb-X/JJ	48bbb-X\	.	.
.	.	.	48ddd-\JJJ	.	.
*ped	*	*	*	*	*
8g-\ 8c\	.	48ryy	48dddn\LLL	.	.
.	.	24bbbn/LL	48bbbn\	.	.
.	.	.	48ddd\JJJ	.	.
.	.	48ryy	48eee-\LLL	.	.
.	.	24cccc/	48cccc\	.	.
.	.	.	48eee-\JJJ	.	.
4A-\)	.	48ryy	48eeen\LLL	.	.
.	.	24cccc#X/	48cccc#X\	.	.
.	.	.	48eee\JJJ	.	.
.	.	48ryy	48fffn\LLL	.	.
.	.	24ddddn/	48ddddn\	.	.
.	.	.	48fff\JJJ	.	.
.	.	48ryy	48fff#X\LLL	.	.
.	.	24eeee-X/	48eeee-X\	.	.
.	.	.	48fff#\JJJ	.	.
.	.	48ryy	48gggn\LLL	.	.
.	.	24eeeen/JJ	48eeeen\	.	.
*Xped	*	*	*	*	*
.	.	.	48ggg\JJJ	.	.
*	*	*v	*v	*	*
!!LO:LB:g=original
=43	=43	=43	=43	=43
*ped	*	*	*	*
(>/8DD-L	.	176%3aaa-\LLL	.	.
.	.	176%3ffff\	.	.
.	.	176%3ffff-X\	4	.
.	.	176%3eeee-\	.	.
.	.	176%3dddd-\	.	.
.	.	176%3cccc\	1	.
.	.	176%3bbb-\	4	.
.	.	176%3aaa-\	.	.
8A-\	.	.	.	.
.	.	176%3ggg-X\	.	.
.	.	176%3fffn\	.	.
.	.	176%3fff-X\	4	.
*	*	*X8va	*	*
.	.	176%3eee-\	.	.
.	.	176%3ddd-\	.	.
.	.	176%3ccc\	.	.
.	.	176%3bb-\	4	.
*	*	*	*	*
8f\J 8d-\	.	.	.	.
.	.	176%3aa-\	.	.
.	.	176%3gg-\	.	.
.	.	176%3ffn\	.	.
.	.	176%3ff-X\	4	.
.	.	176%3ee-\	.	.
.	.	176%3dd-\	.	.
*Xped	*	*	*	*
.	.	176%3cc\JJJ	.	.
*ped	*	*	*	*
8g-\ 8c\	.	4b--\T	.	<
*Xped	*	*	*	*
.	.	.	.	.
4A-\)	.	.	.	.
*ped	*	*	*	*
.	.	.	.	.
.	.	8a-\T	.	.
.	.	.	.	.
=44	=44	=44	=44	=44
(>/8DD-L	.	4a-\T	.	[>
8A-\	.	.	.	.
.	.	8qqfL/	.	.
.	.	8qqa-/	.	.
.	.	8qqdd-/	.	.
.	.	8qqff/	.	.
.	.	8qqbb-/	.	.
.	.	8qqaa-/	.	.
.	.	8qqaa-/	.	.
.	.	8qqaa-\	.	.
.	.	8qqbbb-/J	.	.
*Xped	*	*	*	*
8f\J 8d-\	.	8aaa-\')	.	]
*ped	*	*	*	*
8g-\ 8c\	.	(4a-\T	.	>
4A-\)	.	.	.	.
.	.	8qqgnL/	.	.
.	.	8qqa-/	.	.
.	.	8qqee-/	.	.
.	.	8qqgg-X/	.	.
.	.	8qqbb-/	.	.
.	.	8qqaa-/	.	.
.	.	8qqaa-/	.	.
.	.	8qqaa-/	.	.
.	.	8qqbbb-/J	.	.
*Xped	*	*	*	*
.	.	8aaa-\'>)	.	]
!!LO:LB:g=original
=45	=45	=45	=45	=45
*	*	*8va	*	*
*ped	*	*	*	*
(>/8DD-L	.	(>48dddd-\LLL	.	>
.	.	48bbb-\	.	.
.	.	48dddd-\JJJ	.	.
.	.	48aaa-\LLL	.	.
.	.	48dddd-\	.	.
.	.	48fff\JJJ	.	.
8A-\	.	48dddd-\LLL	.	.
.	.	48ggg-\	.	.
.	.	48dddd-\JJJ	.	.
.	.	48fff\LLL	.	.
.	.	48dddd-\	.	.
.	.	48ddd-\JJJ	.	.
8f\J 8d-\	.	48dddd-\LLL	.	.
.	.	48fff\	.	.
.	.	48cccc\JJJ	.	.
*Xped	*	*	*	*
.	.	48ddd-\LLL	.	.
.	.	48cccc-X\	.	.
.	.	48fff\JJJ	.	.
*ped	*	*	*	*
8g-\ 8e-\	.	48bbb-\LLL	.	.
.	.	48cccn\	.	.
.	.	48bbb--\JJJ	.	.
.	.	48ggg-X\LLL	.	.
.	.	48aaa-\	.	.
.	.	48ccc\JJJ	.	.
4A-\)	.	48gggn\LLL	.	.
.	.	48eee-\	.	.
.	.	48ggg-X\JJJ	.	.
.	.	48bb--\LLL	.	.
.	.	48fff\	.	.
.	.	48ccc\JJJ	.	.
.	.	48eee-\LLL	.	.
.	.	48aa-\	.	.
.	.	48ggg-\JJJ	.	.
.	.	48gg-\LLL	.	]
.	.	48ccc\	.	.
*Xped	*	*	*	*
.	.	48aa-\JJJ	.	.
*	*	*X8va	*	*
!!LO:LB:g=original
=46	=46	=46	=46	=46
*ped	*	*	*	*
(>/8DD-L	.	48ddd-\LLL	.	]
.	.	48bb-\	.	.
.	.	48ddd-\JJJ	.	.
.	.	48aa-\LLL	.	.
.	.	48ddd-\	.	.
.	.	48ff\JJJ	.	.
8A-\	.	48ddd-\LLL	.	.
.	.	48gg-\	.	.
.	.	48ddd-\JJJ	.	.
.	.	48ff\LLL	.	.
.	.	48ddd-\	.	.
.	.	48dd-\JJJ	.	.
8f\J 8d-\	.	48ddd-\LLL	.	.
.	.	48ff\	.	.
.	.	48ccc\JJJ	.	.
*Xped	*	*	*	*
.	.	48dd-\LLL	.	.
.	.	48ccc-X\	.	.
.	.	48ff\JJJ	.	.
*ped	*	*	*	*
8g-\ 8e-\	.	48bb-\LLL	.	.
.	.	48ccn\	.	.
.	.	48bb--\JJJ	.	.
.	.	48gg-X\LLL	.	.
.	.	48aa-\	.	.
.	.	48cc\JJJ	.	.
4A-\)	.	48ggn\LLL	.	.
.	.	48ee-\	.	.
.	.	48gg-X\JJJ	.	.
.	.	48b--\LLL	.	.
.	.	48ff\	.	.
.	.	48cc\JJJ	.	.
.	.	48ee-\LLL	.	.
.	.	48a-/	.	.
.	.	48gg-\JJJ	.	.
.	.	48g-\LLL	.	.
.	.	48cc\	.	.
*Xped	*	*	*	*
.	.	48a-\JJJ	.	.
!!LO:PB:g=original
=47	=47	=47	=47	=47
*ped	*	*	*	*
!	!	!LO:TX:i:b:t=sostenuto	!	!
(>/8DD-L	.	4dd-\ 4f\)	.	.
8A-\	.	.	.	.
*Xped	*	*	*	*
8f\J 8d-\	.	(8dd-\	.	.
*ped	*	*	*	*
8g-\ 8e-\	.	16cc\LL	.	.
.	.	16dd-\	.	.
4A-\)	.	16ee-\	.	.
.	.	16gg-\	.	.
.	.	16bb-\	.	.
*Xped	*	*	*	*
.	.	16b-\JJ	.	.
=48	=48	=48	=48	=48
*ped	*	*	*	*
(>/8DD-L	.	4a-\)	.	.
8A-\	.	.	.	.
*Xped	*	*	*	*
8f\J 8d-\	.	(8a-\	.	.
*ped	*	*	*	*
8e-\	.	16g-\LL	.	.
.	.	16a-\	.	.
4A-\)	.	16cc\	.	.
.	.	16ee-\	.	.
.	.	16gg-\	.	.
*Xped	*	*	*	*
.	.	16g-\JJ	.	.
=49	=49	=49	=49	=49
*ped	*	*	*	*
(>/8DD-L	.	8f/)	.	.
8A-\	.	16r	.	.
.	.	(>16aa-\LL	.	<
8f\J 8d-\	.	16ggn\	.	.
*Xped	*	*	*	*
.	.	16aa-\JJ	.	.
*ped	*	*	*	*
8g-\ 8e-\	.	16bb-\LL	.	.
.	.	16aa-\	.	.
4A-\)	.	16cc\	.	.
.	.	16gg-X\	.	.
.	.	16ccc\	5	.
*Xped	*	*	*	*
.	.	16ggg-X\JJ	4	[
=50	=50	=50	=50	=50
*ped	*	*	*	*
(>/8DD-L	.	16fff\LL	5	>
.	.	16eee-\	.	.
8A-\	.	16ddd-\	.	.
.	.	16ff\	.	.
8f\J 8d-\	.	16aa-\	.	.
*Xped	*	*	*	*
.	.	16ccc\JJ	.	.
*ped	*	*	*	*
8g-\ 8c\	.	16bb-\LL	.	.
.	.	16gg-\	.	.
4A-\)	.	16ee-\	.	.
.	.	16b-\	.	]
.	.	16cc\	.	.
*Xped	*	*	*	*
.	.	16ee-\JJ	.	.
!!LO:PB:g=original
=51	=51	=51	=51	=51
*ped	*	*	*	*
!	!	!	!	!LO:DY:rj
(>/8DD-L	.	4.a-\)	.	p
8A-\	.	.	.	.
*Xped	*	*	*	*
8f\J 8d-\	.	.	.	.
*	*	*tuplet	*	*
!	!	!LO:TUP:a	!	!
8g-\ 8c\	.	(>24gn\LL	.	.
.	.	24a-/	.	.
.	.	24b-\JJ	.	.
*	*	*Xtuplet	*	*
4A-\)	.	24cc\LL	.	.
.	.	24dd-\	.	.
.	.	24ee-\JJ	.	.
.	.	24ff\LL	.	.
.	.	24gg-X\	.	.
*Xped	*	*	*	*
.	.	24bb-\JJ	.	.
=52	=52	=52	=52	=52
*ped	*	*	*	*
(>/8DD-L	.	4.aa-\	.	.
8A-\	.	.	.	.
*Xped	*	*	*	*
8f\J 8d-\	.	.	.	.
*ped	*	*	*	*
8g-X\ 8c\	.	24ggn\LL	.	.
.	.	24aa-\	.	.
.	.	24ccc\JJ	.	.
4A-\)	.	24bb-\LL	.	.
.	.	24aa-\	.	.
.	.	24gg-X\JJ	.	.
.	.	24ee-\LL	.	.
.	.	24b-\	.	.
*Xped	*	*	*	*
.	.	24cc\JJ	.	.
=53	=53	=53	=53	=53
*ped	*	*	*	*
(>/8DD-L	.	24b-\LL	.	pp
.	.	24a-/	.	.
.	.	24ee-\JJ	.	.
8A-\	.	24dd-\LL	.	.
.	.	24ee-\	.	.
.	.	24gg-\JJ	.	.
*Xped	*	*	*	*
8f\J 8d-\	.	24ff\LL	.	.
.	.	24gg-\	.	.
.	.	24bb-\JJ	.	.
*ped	*	*	*	*
*	*	*8va	*	*
8g-\ 8e-\	.	24aa-\LL	.	.
.	.	24aaa-\^>	.	.
.	.	24bb-\JJ	.	.
4A-\)	.	24aaa-\^>LL	.	.
.	.	24ddd-\	.	.
.	.	24aaa-\^>JJ	.	.
.	.	24ccc\LL	.	.
.	.	24aaa-\^>	.	.
*Xped	*	*	*	*
.	.	24fff\JJ	.	.
=54	=54	=54	=54	=54
*ped	*	*	*	*
(>/8DD-L	.	24eee-\LL	.	>
.	.	24ddd-\	.	.
.	.	24dddd-\JJ	.	.
8A-\	.	24cccc\LL	.	.
.	.	24bbb-\	.	.
.	.	24aaa-\JJ	.	.
8f\J 8d-\	.	24fff\^LL	.	.
*Xped	*	*	*	*
.	.	24eee-\	.	.
.	.	24ddd-\JJ	.	.
*	*	*X8va	*	*
*ped	*	*	*	*
8g-\ 8e-\	.	24ccc\LL	.	.
.	.	24bb-\	.	.
.	.	24aa-\JJ	.	.
4A-\)	.	24ff\LL	.	.
.	.	24ee-\	.	.
.	.	24dd-\JJ	.	.
.	.	24cc\LL	.	.
.	.	24b-\	.	]
*Xped	*	*	*	*
.	.	24a-/JJ	.	.
!!LO:LB:g=original
=55	=55	=55	=55	=55
*ped	*	*	*	*
(>/8DD-L	.	4.dd-\)	.	p
8A-\	.	.	.	.
8f\J 8d-\	.	.	.	.
8f\ 8d-\	.	(>16cc-X\^<LL	1	.
.	.	16dd-\	.	.
4A-\)	.	16ff\	.	.
.	.	16bb-\	.	.
.	.	16aa-\	.	.
*Xped	*	*	*	*
.	.	16ee-\JJ	2	.
=56	=56	=56	=56	=56
*	*	*^	*	*
*ped	*	*	*	*	*
!	!	!	!LO:TX:a:t=P:problem:palcowanie się nie wyświetla	!	!
(>/8DD-L	.	8ryy	16cc-\^<LL	1	.
.	.	.	16f\	.	.
8A-\	.	4cc-/	16cc-\	1	.
.	.	.	16ee-\	5	.
8f\J 8d-\	.	.	16a-\	2	.
*Xped	*	*	*	*	*
.	.	.	16dd-\JJ	4	.
!	!	!	!LO:TX:a:t=P:problem:palcowanie się nie wyświetla	!	!
*ped	*	*	*	*	*
8f\ 8d-\	.	4.ryy	16cc-\LL	1	.
.	.	.	16dd-\	.	.
4A-\)	.	.	16ff\	.	.
.	.	.	16bb-\	.	.
.	.	.	16aa-\	.	.
*Xped	*	*	*	*	*
.	.	.	16ee-\JJ	.	.
=57	=57	=57	=57	=57	=57
*ped	*	*	*	*	*
(>/8DD-L	.	8ryy	16cc-X\LL	.	.
.	.	.	16f\	.	.
8A-\	.	4cc-/	16cc-\	.	.
.	.	.	16ee-\	.	.
8f\J 8d-\	.	.	16a-\	.	.
.	.	.	16dd-\JJ	.	.
8f\ 8d-\	.	4.ryy	16cc-\LL	.	.
.	.	.	16dd-\	.	.
4A-\)	.	.	16ff\	.	.
.	.	.	16aa-\	.	.
.	.	.	16ccc-X\	.	.
.	.	.	16ddd-\JJ	.	.
*	*	*v	*v	*	*
=58	=58	=58	=58	=58
(>/8DD-L	.	16eee-\LL	.	.
.	.	16ggg-\	.	.
8A-\	.	16fff\	.	.
.	.	16eee-\	.	.
8f\J 8d-\	.	16ccc-\	.	.
.	.	16aa-\JJ	.	.
8f\ 8d-\	.	16ee-\LL	.	.
.	.	16gg-\	.	.
4A-\)	.	16ff\	.	.
.	.	16dd-\	.	.
.	.	16cc-\	.	.
*Xped	*	*	*	*
.	.	16a-/JJ)	.	.
!!LO:LB:g=original
=59	=59	=59	=59	=59
*ped	*	*	*	*
(>/8DD-L	.	([>4.b-\	.	.
8B-\	.	.	.	.
8g-\J 8d-\	.	.	.	.
8g-\ 8d-\	.	>16b-\LL]	.	.
.	.	16dd-\	.	.
4B-\)	.	16gg-X\	.	.
.	.	16aa-\	.	.
.	.	16bb-\	.	.
*Xped	*	*	*	*
.	.	16cc-X\JJ	.	.
=60	=60	=60	=60	=60
*ped	*	*	*	*
(>/8DD-L	.	16b-\LL	.	.
.	.	16dd-\	.	.
8B-\	.	16gg-\	.	.
.	.	16aa-\	.	.
8g-\J 8d-\	.	16bb-\	.	.
.	.	16ddd-\JJ	.	.
8g-\ 8d-\	.	16ggg-\LL	.	.
.	.	16aaa-\	.	.
4B-\)	.	16bbb-\	.	.
.	.	16ggg-\	.	.
.	.	16eee-\	.	.
*Xped	*	*	*	*
.	.	16ddd-\JJ	.	.
=61	=61	=61	=61	=61
*ped	*	*	*	*
!	!	!LO:TX:b:i:t=dim.:problem:dynamics with extention lines	!	!
!	!	!	!	!LO:HP:b:i:t=dim.
(>/8DD-L	.	16fff\LL	.	>
.	.	16eee-\	.	.
8A-\	.	16bb-\	.	.
.	.	16cccn\	.	.
8g-\J 8c\	.	16eee-\	.	.
.	.	16ddd-\JJ	.	.
8g-\ 8c\	.	16aa-\LL	.	.
.	.	16bb-\	.	.
4A-\)	.	16ddd-\	.	.
.	.	16ccc\	.	.
.	.	16gg-\	.	.
.	.	16aa-\JJ	.	.
=62	=62	=62	=62	=62
(>/8DD-L	.	16ccc\LL	.	.
.	.	16bb-\	.	.
8A-\	.	16ff\	.	.
.	.	16gg-\	.	.
8g-\J 8c\	.	16bb-\	.	.
*Xped	*	*	*	*
.	.	16aa-\JJ	.	.
*ped	*	*	*	*
8g-\ 8c\	.	16ee-\LL	.	.
.	.	16ff\	.	.
4A-\)	.	16aa-\	.	.
.	.	16gg-\	.	.
.	.	16dd-\	.	.
*Xped	*	*	*	*
.	.	16ee-\JJ)	.	.
!!LO:LB:g=original
=63	=63	=63	=63	=63
*ped	*	*	*	*
(>/8DD-L	.	(4.ff\	.	.
8A-\	.	.	.	.
8f\J 8d-\	.	.	.	.
8f\ 8d-\	.	8ee-\L	.	.
*Xped	*	*	*	*
.	.	.	.	.
4A-\)	.	8aa-\	.	.
.	.	8ff\J	.	.
=64	=64	=64	=64	=64
*ped	*	*	*	*
(>/8DD-L	.	8ee-\L	.	.
8A-\	.	8ff\	.	.
8f\J 8d-\	.	8dd-\J	.	.
8f\ 8d-\	.	8b-\L	.	.
4A-\)	.	8dd-\	.	.
*Xped	*	*	*	*
.	.	.	.	.
.	.	8a-\J	.	.
=65	=65	=65	=65	=65
*ped	*	*	*	*
(>/8DD-L	.	8b-\L	.	.
8A-\	.	8dd-\	.	.
*Xped	*	*	*	*
8f\J 8d-\	.	8a-\J	.	.
*ped	*	*	*	*
8d-\	.	8g-\L	.	.
4A-\)	.	8dd-\	.	.
*Xped	*	*	*	*
.	.	8f\J)	.	.
=66	=66	=66	=66	=66
*ped	*	*	*	*
(>/8DD-L	.	4r	.	.
8A-\	.	.	.	.
8d-\J	.	8r	.	.
8d-\	.	(>8f/L	.	.
4A-\)	.	8a-/	.	.
*Xped	*	*	*	*
.	.	.	.	.
.	.	8e-/J	.	.
=67	=67	=67	=67	=67
*ped	*	*	*	*
(>/8DD-L	.	8e-/L	.	.
8A-\	.	8a-/	.	.
*Xped	*	*	*	*
8f\J	.	8d-/J)	.	.
*ped	*	*	*	*
8f\ 8d-\	.	4r	.	.
4A-\)	.	.	.	.
.	.	8r	.	]
=68	=68	=68	=68	=68
(>/8DD-L	.	2.r	.	.
8A-\	.	.	.	.
8f>\ 8d->\J	.	.	.	.
8f>\ 8d->\	.	.	.	.
4A-\)	.	.	.	.
*Xped	*	*	*	*
.	.	.	.	.
=69	=69	=69	=69	=69
*ped	*	*	*	*
2.AA-\ 2.AAA-\	.	>2.e-/ 2.c/ 2.A-</ 2.G-</	.	>
.	.	.	.	]]
*Xped	*	*	*	*
=70	=70	=70	=70	=70
4AA-\ 4DD-\	.	4d-/ 4F</	.	.
8r	.	8r	.	.
4r	.	4r	.	.
8r	.	8r	.	.
==	==	==	==	==
*-	*-	*-	*-	*-
!!title: @{OTL}; @{OPS} @{ONM} publisher: @{PPR}
!!!RDF**kern: > = above
!!!RDF**kern: < = below
!!!RDF**kern: N = linked
!!!RDF**kern: i=editorial accidental, brackett
!!!ENC: Andrzej Borzym
!!!END: 2020-12-26
!!!rism-genre: Berceuse
!!!rism-key: D-flat major
!!!rism-opus: op. 57
!!!rism-title: Berceuse in D-flat major op. 57
!!!rism-permalink: 
